trunk/public/assets/images/icons/yellow/move_right/file-pic.svg

<svg width="16" height="16" xmlns="http://www.w3.org/2000/svg" viewBox="0 0 16 16" shape-rendering="geometricPrecision" fill="#ffad00"><defs><mask id="a"><rect fill="#fff" width="100%" height="100%"/><path fill="#000" d="M11.875-1.414l-2.47 2.47 2.035 2.04L9.405 5.13l2.47 2.472 4.51-4.51z"/></mask></defs><path fill="#cb1800" d="M11.875 0l-1.057 1.057 2.035 2.038-2.035 2.037 1.057 1.057 3.095-3.097"/><g mask="url(#a)"><path d="M10.055 14.302l2.54-2.338h-2.54"/><path d="M2.595 1.016v13.97h6.008v-4.47h4.802v-9.5H2.595zm9.44 8.027h-4.79v4.6H3.916V2.32h8.116v6.725z"/><path d="M7.33 3.632v-.67H5.993v.67h-.67v3.345h5.354V3.632H7.33zm.335 2.676c-.554 0-1.003-.448-1.003-1.003 0-.555.45-1.004 1.003-1.004s1.003.45 1.003 1.005c0 .554-.45 1.003-1.003 1.003zm2.342-1.338h-.67V4.3h.67v.67z"/></g></svg>

<?xml version="1.0"?><!DOCTYPE svg PUBLIC "-//W3C//DTD SVG 1.1//EN" "http://www.w3.org/Graphics/SVG/1.1/DTD/svg11.dtd"><svg width="16px" height="16px" xmlns="http://www.w3.org/2000/svg" viewBox="0 0 16 16" shape-rendering="geometricPrecision" fill="#ffad00"><defs><mask id="move_right-path"><rect fill="#fff" width="100%" height="100%"/><polygon points="11.875,-1.414 9.405,1.056 11.44,3.095 9.405,5.132 11.875,7.604 16.385,3.093 " fill="#000"/></mask></defs><polygon points="11.875,0 10.818,1.057 12.853,3.095 10.818,5.132 11.875,6.189 14.97,3.093 " fill="#cb1800"/><g mask="url(#move_right-path)"><g><g><polygon points="10.055,14.302 12.595,11.964 10.055,11.964"/><path d="M2.595,1.016v13.969h6.008v-4.468h4.802V1.016H2.595z M12.034,9.043h-4.79v4.601H3.917V2.318h8.116V9.043z"/></g></g><path d="M7.331,3.632V2.963H5.992v0.669H5.323v3.345h5.353V3.632H7.331z M7.665,6.308 c-0.554,0-1.003-0.448-1.003-1.003c0-0.555,0.449-1.004,1.003-1.004S8.668,4.75,8.668,5.305C8.668,5.859,8.219,6.308,7.665,6.308z M10.007,4.97H9.337V4.301h0.669V4.97z"/></g></svg>
